64x64/apps/gramwallet.svg

<svg height="64" width="64" xmlns="http://www.w3.org/2000/svg"><circle cx="32.5" cy="32.5" opacity=".2" r="28.5"/><circle cx="32.5" cy="31.5" fill="#17191e" r="28.5"/><path d="m23.193 19c-1.936 0-3.928.225-5.3 1.693-.686.734-1.067 1.818-1.002 2.926s.486 2.25 1.228 3.535l13.076 23.086a1.5 1.5 0 0 0 2.616-.01l13.271-23.78c.959-1.66 1.523-3.525.588-5.175s-2.938-2.275-5.578-2.275zm0 3h7.807v21.808l-10.277-18.142a1.5 1.5 0 0 0 -.006-.012c-.593-1.027-.807-1.778-.832-2.21-.026-.434.048-.538.2-.702.308-.328 1.537-.742 3.108-.742zm10.807 0h8.092c2.16 0 2.84.527 2.969.754.128.227.137.962-.577 2.197a1.5 1.5 0 0 0 -.011.02l-10.473 18.762z" opacity=".2"/><path d="m32.5 48.5-13.082-23.096c-2.67-4.625.269-5.904 3.776-5.904h18.899c4.8 0 5.362 2.306 3.69 5.201z" fill="none" stroke="#f4f4f7" stroke-linecap="round" stroke-linejoin="round" stroke-width="3"/><g fill="#f4f4f7"><path d="m31 19.59h3v28.283h-3z"/><path d="m32.5 3a28.5 28.5 0 0 0 -28.5 28.5 28.5 28.5 0 0 0 .021.582 28.5 28.5 0 0 1 28.479-28.082 28.5 28.5 0 0 1 28.479 27.918 28.5 28.5 0 0 0 .021-.418 28.5 28.5 0 0 0 -28.5-28.5z" opacity=".1"/></g></svg>

<svg xmlns="http://www.w3.org/2000/svg" width="64" height="64"><circle style="opacity:.2" cx="32.5" cy="32.5" r="28.5"/><circle style="fill:#17191e" cx="32.5" cy="31.5" r="28.5"/><path style="opacity:.2" d="M23.193 19c-1.936 0-3.928.225-5.3 1.693-.686.734-1.067 1.818-1.002 2.926.065 1.108.486 2.25 1.228 3.535L31.195 50.24a1.5 1.5 0 0 0 2.616-.01l13.271-23.78c.959-1.66 1.523-3.525.588-5.175-.935-1.65-2.938-2.275-5.578-2.275zm0 3H31v21.808L20.723 25.666a1.5 1.5 0 0 0-.006-.012c-.593-1.027-.807-1.778-.832-2.21-.026-.434.048-.538.2-.702.308-.328 1.537-.742 3.108-.742zM34 22h8.092c2.16 0 2.84.527 2.969.754.128.227.137.962-.577 2.197a1.5 1.5 0 0 0-.011.02L34 43.733z"/><path style="fill:none;stroke:#f4f4f7;stroke-width:3;stroke-linecap:round;stroke-linejoin:round" d="M32.5 48.5 19.418 25.404c-2.67-4.625.269-5.904 3.776-5.904h18.899c4.8 0 5.362 2.306 3.69 5.201z"/><path style="fill:#f4f4f7" d="M31 19.59h3v28.283h-3z"/><path style="fill:#f4f4f7;opacity:.1" d="M32.5 3A28.5 28.5 0 0 0 4 31.5a28.5 28.5 0 0 0 .021.582A28.5 28.5 0 0 1 32.5 4a28.5 28.5 0 0 1 28.479 27.918A28.5 28.5 0 0 0 61 31.5 28.5 28.5 0 0 0 32.5 3z"/></svg>
